X: 5039
T: Brian O'Lynn
R: jig
M: 6/8
K: Adorian
AB|:cAd cAG|E3 GAB|cAd cAG|EAA A2B|
c3 cAG|E3 GAB|cde g/f/ed|cAG A2B:|
|:g3 ged|cAB c2d|e2a age|edc def|
g3 ged|cAB cde|=fed cAG|1 EAA A2f:|2 EAA A2B||

